X: 28540
T: Munster, The
R: reel
M: 4/4
K: Dmajor
f2ed cAAG|ABcA dcde|f2 ed cAAG|EFGE D2 de|
f2ed cAAG|AB (3cBA dcde|f2 ed cAAG|EFGE D2 ef||
gfed (3Bcd ed|eaag eaaf|g2 ed (3Bcd ed|eage d2 ef|
gfed (3Bcd ed|eaag eaaf|g2 ed (3Bcd ed|eage d2||

